X:1
T:Grasmere, 87.87 D
T:Ira David Sankey, 1876
T:Grasmere, 87.87 D
T:Public Domain
C:Ira David Sankey, 1876
Z:Public Domain
%%score ( 1 2 ) 3
L:1/8
M:6/8
K:Bb
V:1 treble 
V:2 treble 
V:3 bass 
V:1
 [DF]2 [EG] [DF]2 [FB] | [Fd]2 [Ec] [DB]2 [DF] | [FB]2 [^FA] [GB]2 [Gc] | [Fd]2 [Fc] (F2 E) | %4
 [DF]2 [EG] [DF]2 [FB] | [Fd]2 [Ec] [DB]2 [DF] | ([EG][GB])[Ge] [Fd]2 [Dc] | [Fd]2 [Ec] [DB]3 | %8
 [Fc]2 [Fc] [Fc]2 [^Fd] | [GB]2 [GB] [GB]2 [=Ec] | [FA]2 [FB] [Fc]2 [Fd] | [FA]2 [=EG] (F2 _E) | %12
 [DF]2 [EG] [DF]2 [FB] | [Fd]2 [Ec] [DB]2 [DF] | ([EG][GB])[Ge] [Fd]2 [DB] | [Fd]2 [Ec] [DB]3 |] %16
V:2
 x6 | x6 | x6 | x3 c3 | x6 | x6 | x6 | x6 | x6 | x6 | x6 | x3 F3 | x6 | x6 | x6 | x6 |] %16
V:3
 [B,,B,]2 [B,,B,] [B,,B,]2 [D,B,] | [F,B,]2 [F,A,] [B,,B,]2 [B,,B,] | %2
 [D,B,]2 [D,C] [E,B,]2 [E,B,] | [F,B,]2 [F,A,] [F,A,]3 | [B,,B,]2 [B,,B,] [B,,B,]2 [D,B,] | %5
 [F,B,]2 [F,A,] [B,,B,]2 [B,,B,] | [E,B,]2 [E,B,] [F,B,]2 [F,B,] | [F,B,]2 [F,A,] [B,,B,]3 | %8
 [F,A,]2 [F,A,] [F,A,]2 [D,A,] | [G,B,]2 [G,D] [G,D]2 [C,C] | [F,C]2 [D,B,] [A,,F,]2 [B,,F,] | %11
 [C,F,]2 [C,B,] [F,A,]3 | [B,,B,]2 [B,,B,] [B,,B,]2 [D,B,] | [F,B,]2 [E,A,] [B,,B,]2 [B,,B,] | %14
 [E,B,]2 [E,B,] [F,B,]2 [F,B,] | [F,A,]2 [F,A,] [B,,B,]3 |] %16

